jsapp/svg-icons/qt-calculate-lock.svg

<svg height="642" viewBox="0 0 642 642" width="642" xmlns="http://www.w3.org/2000/svg"><path d="m517.18 441.11v.18h-.37v-.2c.03482-.059721.078672-.113693.13-.16h.06c.079919.036077.143923.100081.18.18zm-5.75-124.69c1.85-.08 3.7-.13 5.57-.13 16.664541-.019137 33.162354 3.317155 48.51 9.81v-143.83l-105.51 18.85v39l51.43-1.12zm-145.3 115.51v-78.08h58.27v-48.37h-58.27v-75.41h-51.22v75.41h-58.47v48.37h58.46v78.08zm-289.64-191.77 51.41-1.16v220.73h54.1v-277.46l-105.51 18.85zm565.51 375.05c0 14.795708-11.994292 26.79-26.79 26.79h-196.42c-14.795708 0-26.79-11.994292-26.79-26.79v-107.14c0-14.795708 11.994292-26.79 26.79-26.79h13.39v-40.17c0-46.844792 37.975208-84.82 84.82-84.82s84.82 37.975208 84.82 84.82v40.18h13.39c14.791804 0 26.784479 11.988197 26.79 26.78zm-97.91-55.14c0-14.746003-11.953997-26.7-26.7-26.7s-26.7 11.953997-26.7 26.7 11.953997 26.7 26.7 26.7c14.730396 0 26.677932-11.929621 26.7-26.66zm13.09-119c0-22.190801-17.989199-40.18-40.18-40.18s-40.18 17.989199-40.18 40.18v40.18h80.36z"/></svg>

<svg id="Layer_1" data-name="Layer 1" xmlns="http://www.w3.org/2000/svg" viewBox="0 0 642 642"><path d="M517.18,441.11v.18h-.37v-.2a.67.67,0,0,1,.13-.16H517A.36.36,0,0,1,517.18,441.11Zm-5.75-124.69c1.85-.08,3.7-.13,5.57-.13a124.14,124.14,0,0,1,48.51,9.81V182.27L460,201.12v39L511.43,239ZM366.13,431.93V353.85H424.4V305.48H366.13V230.07H314.91v75.41H256.44v48.37h58.46v78.08ZM76.49,240.16,127.9,239V459.73H182V182.27L76.49,201.12ZM642,508.07V615.21A26.79,26.79,0,0,1,615.21,642H418.79A26.79,26.79,0,0,1,392,615.21V508.07a26.79,26.79,0,0,1,26.79-26.79h13.39V441.11a84.82,84.82,0,0,1,169.64,0v40.18h13.39A26.79,26.79,0,0,1,642,508.07Zm-97.91,52a26.7,26.7,0,1,0-26.7,26.7A26.7,26.7,0,0,0,544.09,560.11Zm13.09-119a40.18,40.18,0,1,0-80.36,0v40.18h80.36Z"/></svg>
